img/logos/apiary.svg

<?xml version="1.0" encoding="UTF-8" standalone="no"?>
<svg width="256px" height="259px" viewBox="0 0 256 259" version="1.1" xmlns="http://www.w3.org/2000/svg" xmlns:xlink="http://www.w3.org/1999/xlink" preserveAspectRatio="xMinYMin meet">
    <defs>
        <linearGradient x1="100.011588%" y1="49.9905059%" x2="-6.48195737e-10%" y2="49.9905059%" id="linearGradient-1">
            <stop stop-color="#37BDA6" offset="0%"></stop>
            <stop stop-color="#8AD3B8" offset="100%"></stop>
        </linearGradient>
        <linearGradient x1="100.011588%" y1="49.9980936%" x2="-3.88862804e-09%" y2="49.9980936%" id="linearGradient-2">
            <stop stop-color="#4BB6AD" offset="50%"></stop>
            <stop stop-color="#78BBC1" offset="100%"></stop>
        </linearGradient>
        <linearGradient x1="-0.0184384384%" y1="49.9980936%" x2="100.023183%" y2="49.9980936%" id="linearGradient-3">
            <stop stop-color="#4379A7" offset="0%"></stop>
            <stop stop-color="#7CC9B8" offset="100%"></stop>
        </linearGradient>
    </defs>
	<g>
		<path d="M127.693413,36.8670659 L127.693413,110.447904 L191.54012,73.5808383 L191.54012,0 L127.693413,36.8670659 L127.693413,36.8670659 Z" opacity="0.5" fill="#13A049"></path>
		<path d="M127.693413,36.8670659 L63.8467066,0 L63.8467066,73.7341317 L127.693413,110.601198 L127.693413,36.8670659 L127.693413,36.8670659 Z" opacity="0.5" fill="#A2CC39"></path>
		<path d="M191.54012,0 L127.693413,36.8670659 L63.8467066,0 L0,36.8670659 L127.693413,110.601198 L255.31018,36.8670659 L191.54012,0 L191.54012,0 Z" opacity="0.9" fill="url(#linearGradient-1)"></path>
		<path d="M127.693413,110.601198 L0,36.8670659 L0,110.601198 L63.8467066,147.468263 L63.8467066,221.125749 L127.693413,257.992814 L191.54012,221.125749 L191.54012,147.468263 L255.31018,110.601198 L255.31018,36.8670659 L127.693413,110.601198 L127.693413,110.601198 Z" fill="url(#linearGradient-2)"></path>
		<path d="M127.693413,110.601198 L127.693413,257.992814 L191.54012,221.125749 L191.54012,147.468263 L255.31018,110.601198 L255.31018,36.8670659 L127.693413,110.601198 L127.693413,110.601198 Z" fill="url(#linearGradient-3)"></path>
		<path d="M127.693413,184.258683 L127.693413,257.992814 L191.54012,221.125749 L127.693413,184.258683 L127.693413,184.258683 Z" opacity="0.05" fill="#231F20"></path>
		<path d="M127.693413,258.146108 L127.693413,184.411976 L63.8467066,221.279042 L127.693413,258.146108 L127.693413,258.146108 Z" opacity="0.1" fill="#231F20"></path>
		<path d="M63.8467066,73.7341317 L0,110.601198 L63.8467066,147.468263 L127.693413,110.601198 L63.8467066,73.7341317 L63.8467066,73.7341317 Z" opacity="0.05" fill="#231F20"></path>
		<path d="M191.54012,73.7341317 L127.693413,110.601198 L191.54012,147.468263 L255.31018,110.601198 L191.54012,73.7341317 L191.54012,73.7341317 Z" opacity="0.05" fill="#231F20"></path>
	</g>
</svg>

<svg width="256" height="259" viewBox="0 0 256 259" xmlns="http://www.w3.org/2000/svg" preserveAspectRatio="xMinYMin meet"><defs><linearGradient x1="100.012%" y1="49.991%" x2="0%" y2="49.991%" id="a"><stop stop-color="#37BDA6" offset="0%"/><stop stop-color="#8AD3B8" offset="100%"/></linearGradient><linearGradient x1="100.012%" y1="49.998%" x2="0%" y2="49.998%" id="b"><stop stop-color="#4BB6AD" offset="50%"/><stop stop-color="#78BBC1" offset="100%"/></linearGradient><linearGradient x1="-.018%" y1="49.998%" x2="100.023%" y2="49.998%" id="c"><stop stop-color="#4379A7" offset="0%"/><stop stop-color="#7CC9B8" offset="100%"/></linearGradient></defs><path d="M127.693 36.867v73.58l63.847-36.866V0l-63.847 36.867z" opacity=".5" fill="#13A049"/><path d="M127.693 36.867L63.847 0v73.734l63.846 36.867V36.868z" opacity=".5" fill="#A2CC39"/><path d="M191.54 0l-63.847 36.867L63.847 0 0 36.867 127.693 110.6 255.31 36.868 191.54 0z" opacity=".9" fill="url(#a)"/><path d="M127.693 110.6L0 36.868V110.6l63.847 36.868v73.658l63.846 36.867 63.847-36.867v-73.658l63.77-36.867V36.868L127.693 110.6z" fill="url(#b)"/><path d="M127.693 110.6v147.393l63.847-36.867v-73.658l63.77-36.867V36.868L127.693 110.6z" fill="url(#c)"/><path d="M127.693 184.26v73.733l63.847-36.867-63.847-36.867z" opacity=".05" fill="#231F20"/><path d="M127.693 258.146v-73.734L63.847 221.28l63.846 36.866z" opacity=".1" fill="#231F20"/><path d="M63.847 73.734L0 110.6l63.847 36.868 63.846-36.867-63.846-36.866zM191.54 73.734L127.693 110.6l63.847 36.868 63.77-36.867-63.77-36.866z" opacity=".05" fill="#231F20"/></svg>
